vendor/shopware/storefront/Resources/app/storefront/dist/assets/icon/solid/search.svg

<svg xmlns="http://www.w3.org/2000/svg" width="16" height="16" viewBox="0 0 16 16">
  <path fill="#758CA3" fill-rule="evenodd" d="M6.52346564,10.8907479 L2.20710678,15.2071068 C1.81658249,15.5976311 1.18341751,15.5976311 0.792893219,15.2071068 C0.402368927,14.8165825 0.402368927,14.1834175 0.792893219,13.7928932 L5.10925208,9.47653436 C4.41079097,8.49571549 4,7.29583043 4,6 C4,2.6862915 6.6862915,0 10,0 C13.3137085,0 16,2.6862915 16,6 C16,9.3137085 13.3137085,12 10,12 C8.70416957,12 7.50428451,11.589209 6.52346564,10.8907479 Z M10,10 C12.209139,10 14,8.209139 14,6 C14,3.790861 12.209139,2 10,2 C7.790861,2 6,3.790861 6,6 C6,8.209139 7.790861,10 10,10 Z"/>
</svg>

<svg xmlns="http://www.w3.org/2000/svg" width="16" height="16" viewBox="0 0 16 16"><path fill="#758CA3" fill-rule="evenodd" d="M6.5235 10.8907 2.207 15.2071c-.3905.3905-1.0237.3905-1.4142 0-.3905-.3905-.3905-1.0237 0-1.4142l4.3164-4.3164C4.4108 8.4957 4 7.2958 4 6c0-3.3137 2.6863-6 6-6s6 2.6863 6 6-2.6863 6-6 6c-1.2958 0-2.4957-.4108-3.4765-1.1093zM10 10c2.2091 0 4-1.7909 4-4 0-2.2091-1.7909-4-4-4-2.2091 0-4 1.7909-4 4 0 2.2091 1.7909 4 4 4z"/></svg>
